surround-sound-7-1.svg

<svg fill="currentColor" viewBox="0 0 24 24"><path d="M14 17h-2v-2h2zm6-10v10h-2V9h-2V7zM4 17l4-8H4V7h6v2l-4 8"/></svg>

<svg  viewBox="0 0 24 24" fill="currentColor"><path  d="M14 17H12V15H14V17M20 7V17H18V9H16V7H20M4 17L8 9H4V7H10V9L6 17"/></svg>
